X: 22568
T: Lady Margaret Stewart
R: reel
M: 4/4
K: Bminor
g|:f2Bf dBfB|faef cAec|f2Bf dBfB|ecAc BBBg:|
fBBc dcdB|eAAB cdeg|fBBc dcdB|faec BBBg|
fBBc dcdB|eAAB cdeg|fBBc dcdB|afec BBB||

